X:154
T:Trip to the Camp THO4.154, The
M:C|
L:1/8
Z:vmp. Peter Dunk 2010/11.from a transcription by Fynn Titford-Mock 2007
B:Thompson's Compleat Collection of 200 Favourite Country Dances Volume IV.
Q:1/2=80
K:A
AEcA ec a2|gfed cBAG|AEcA ec a2|gbB^d e2E2:|
egbg aedc|dcBA AGFE|AEcA ecaf|ecBc A2A,2:|
